X: 160336
T: Pride of Moyvane
S: M.Mulvihill
Z: B.Black
R: reel
M: 4/4
L: 1/8
K: Ddor
FG | AD D2 DEFG | Ad (3ded cAGE | F2 DF E2 CB |\
cAGF EC C2 |
AD D2 DEFG | Ad (3ded cAGE | F3 F E2 cE |\
EDCE D2 :|
FG | Add^c d2 Ad | d2 fd dcAB | c2 cd cAGE |\
AccB cAGE |
Add^c d2 Ad | d2 fd dcAG | F3 D E2 cE |\
EDCE D2 :|
